icons/fill-new-media-c-scale-to-original.svg

<svg xmlns="http://www.w3.org/2000/svg" width="32px" height="32px" viewBox="0 0 32 32" version="1.1">
    <title>fill-new-media-c-scale-to-original</title>
    <g id="fill-new-media-c-scale-to-original" stroke-width="1" fill-rule="evenodd">
        <path d="M29,5 C29.5522847,5 30,5.44771525 30,6 L30,26 C30,26.5522847 29.5522847,27 29,27 L3,27 C2.44771525,27 2,26.5522847 2,26 L2,6 C2,5.44771525 2.44771525,5 3,5 L29,5 Z M10,11 C9.44771525,11 9,11.4477153 9,12 L9,20 C9,20.5522847 9.44771525,21 10,21 C10.5522847,21 11,20.5522847 11,20 L11,12 C11,11.4477153 10.5522847,11 10,11 Z M22,11 C21.4477153,11 21,11.4477153 21,12 L21,20 C21,20.5522847 21.4477153,21 22,21 C22.5522847,21 23,20.5522847 23,20 L23,12 C23,11.4477153 22.5522847,11 22,11 Z M16,17 C15.4477153,17 15,17.4477153 15,18 C15,18.5522847 15.4477153,19 16,19 C16.5522847,19 17,18.5522847 17,18 C17,17.4477153 16.5522847,17 16,17 Z M16,13 C15.4477153,13 15,13.4477153 15,14 C15,14.5522847 15.4477153,15 16,15 C16.5522847,15 17,14.5522847 17,14 C17,13.4477153 16.5522847,13 16,13 Z" id="&#24418;&#29366;" />
    </g>
</svg>

<svg xmlns="http://www.w3.org/2000/svg" viewBox="0 0 32 32"><path fill="currentColor" d="M29 5a1 1 0 0 1 1 1v20a1 1 0 0 1-1 1H3a1 1 0 0 1-1-1V6a1 1 0 0 1 1-1zm-19 6a1 1 0 0 0-1 1v8a1 1 0 0 0 2 0v-8a1 1 0 0 0-1-1m12 0a1 1 0 0 0-1 1v8a1 1 0 0 0 2 0v-8a1 1 0 0 0-1-1m-6 6a1 1 0 1 0 0 2 1 1 0 0 0 0-2m0-4a1 1 0 1 0 0 2 1 1 0 0 0 0-2"/></svg>
